svg/color/rvn.svg

<svg height="32" viewBox="0 0 32 32" width="32" xmlns="http://www.w3.org/2000/svg"><g fill="none" fill-rule="evenodd"><circle cx="16" cy="16" fill="#384182" r="16"/><path d="m9.5 27 3.6180422-16.7888403 2.0307721 12.6006565zm3.6880689-16.8851204 5.49709 12.7089716-3.4429757-.0601751zm.0816977-.09628 7.2010712 1.0229759-1.6689679 11.7822757zm5.6604855 12.6247264 1.6222834-11.4934354 1.0620705 1.3479212zm1.5172435-11.7100656-7.0260046-.99890591 6.3257383-2.0820569zm-7.061018-1.10722101 4.3066374-2.98468272 2.0541143.90262582zm-.1050399-.03610504.8286484-1.58862144 3.5130023-1.40809628zm.8286484-1.66083151.3968175-1.23960612 2.8944338-.09628009zm.3734753-1.33588621.9336883-.99890591 2.0074299.90262582zm.9920439-1.05908096 1.4005324-.68599563 1.8090212 2.11816193zm1.5989412-.60175055 2.0891276.91466083-.3734753 1.13129103zm1.7856789 2.08205689.3851465-1.15536105.4668441 1.58862145zm-1.9374032-2.21444201h1.5289146l.7572859.8417474c.0123794.01376007.0157734.03339904.0087302.05051575-.010117.02458689-.0382501.03631703-.062837.02620001zm2.4159185.96280088 3.1100644.86857243c.024436.00682444.0434978.02597235.0502121.05043886.0105541.03845863-.012067.0781913-.0505257.08874539l-2.6429066.72528489z" fill="#fff"/></g></svg>

<svg xmlns="http://www.w3.org/2000/svg" width="32" height="32" viewBox="0 0 32 32">
  <g fill="none" fill-rule="evenodd">
    <circle cx="16" cy="16" r="16" fill="#384182"/>
    <path fill="#FFF" d="M9.5,27 L13.1180422,10.2111597 L15.1488143,22.8118162 L9.5,27 Z M13.1880689,10.1148796 L18.6851589,22.8238512 L15.2421832,22.7636761 L13.1880689,10.1148796 Z M13.2697666,10.0185996 L20.4708378,11.0415755 L18.8018699,22.8238512 L13.2697666,10.0185996 Z M18.9302521,22.643326 L20.5525355,11.1498906 L21.614606,12.4978118 L18.9302521,22.643326 Z M20.4474956,10.9332604 L13.421491,9.93435449 L19.7472293,7.85229759 L20.4474956,10.9332604 Z M13.3864776,9.82603939 L17.693115,6.84135667 L19.7472293,7.74398249 L13.3864776,9.82603939 Z M13.2814377,9.78993435 L14.1100861,8.20131291 L17.6230884,6.79321663 L13.2814377,9.78993435 Z M14.1100861,8.12910284 L14.5069036,6.88949672 L17.4013374,6.79321663 L14.1100861,8.12910284 Z M14.4835614,6.79321663 L15.4172497,5.79431072 L17.4246796,6.69693654 L14.4835614,6.79321663 Z M15.4756053,5.73413567 L16.8761377,5.04814004 L18.6851589,7.16630197 L15.4756053,5.73413567 Z M17.0745465,5.13238512 L19.1636741,6.04704595 L18.7901988,7.17833698 L17.0745465,5.13238512 Z M18.8602254,7.21444201 L19.2453719,6.05908096 L19.712216,7.64770241 L18.8602254,7.21444201 Z M16.9228222,5 L18.4517368,5 L19.2090227,5.8417474 C19.2214021,5.85550747 19.2247961,5.87514644 19.2177529,5.89226315 C19.2076359,5.91685004 19.1795028,5.92858018 19.1549159,5.91846316 L16.9228222,5 Z M19.3387407,5.96280088 L22.4488051,6.83137331 C22.4732411,6.83819775 22.4923029,6.85734566 22.4990172,6.88181217 C22.5095713,6.9202708 22.4869502,6.96000347 22.4484915,6.97055756 L19.8055849,7.69584245 L19.3387407,5.96280088 Z"/>
  </g>
</svg>
